X: 17030
T: Heartlight View
R: reel
M: 4/4
K: Amajor
|:"A"a=gec Aeee|"G"d=gdB BAA=G|"A"EAAB cedB|"G"=GABG "A"BAAG|
"A"a=gec Aeee|"G"d=gdB BAA=G|"Am"EAAB =cedB|"G"=GABG "Am"BA A2:|
|:"A"cAeA cAAA|"G"B=GdG BGGG|"A"cAeA cAAA|"G"=GABG "A"BAAG|
"A"cAeA cAAA|"G"B=GdG BGGG|"Am"EAAB =cedB|"G"=GABG "Am"BA A2:|

